X: 40326
T: Tom Billy's
R: waltz
M: 3/4
K: Gmajor
dc|:B4 D2|G4 D2|E2 G3 E|D4 B2|A2 G3 A|
B2 d3 B|1 A2 G2 E2|D2 G2 A2:|2 A2 E2 F2|G2 B2 c2||
|:d4 B2|G2 A2 B2|d4 B2|d4e2|d4 B2|d2 g2 f2|
f4 e2|e6|e4c2|A4 G2|F4 G2|A4 B2|c2 cB cd|
[1 e2 d2 c2|B3 A Bc|B4c2:|2 e2 d2 B2|G3 A BA|G4||

